X:1
T:Title
%%score { ( 1 2 ) | ( 3 4 ) }
L:1/8
M:4/4
K:Eb
V:1 treble nm="Grand Piano"
V:2 treble 
V:3 bass 
V:4 bass 
V:1
 z4 z2[Q:1/4=106] z F | [B,EG]2 [EGB]2 [EGB]2 [EGc]2 | [DGB]2 [DFA]2 [DFA]2 [DF]G | %3
 [B,FA]2 [DAc]2 [DAc]2 [DAd]2 |[M:3/4] [Gc]2 [GB]2 [GB]2 |[M:1/4] [EG][FA] | %6
[M:4/4] [GB]2 [Ge]2 [Ge]2 [Gf]2 | e2 c2 c4 | [GB]2 G2 G>F E2 | [DF]4 E2 z2 | %10
 [Ge]2 [GB]2 [GB]>[FA] G2 | c4 B2 z2 | [Ge]2 [B,GB]2 [B,GB]>[B,FA] [B,EG]2 | %13
[M:3/4] [B,EG]4 [B,DF]2 |[M:1/4] z F |[M:4/4] [B,EG]2 [EGB]2 [EGB]2 [B,EG][_DF] | %16
 [CE]2 [Ec]2 [Ec]4 | [B,GB]2 [B,EG]2 [B,EG]>[A,DF] [G,E]2 |[M:3/4] [A,DF]4 [G,E]2 |] %19
V:2
 z4 z2 E2 | x8 | x8 | x8 |[M:3/4] x6 |[M:1/4] x2 |[M:4/4] x8 | x8 | x8 | x8 | x8 | x8 | x8 | %13
[M:3/4] x6 |[M:1/4] E2 |[M:4/4] x8 | x8 | x8 |[M:3/4] x6 |] %19
V:3
 z4 z2 z A, | E,2 E,2 E,2 E,2 | z4 z2 [B,,B,]2 | B,,2 B,,2 B,,2 B,,2 | %4
[M:3/4] [E,E]2 [E,E]2 [E,E]2 |[M:1/4] [E,B,]2 |[M:4/4] [E,E]2 [E,B,]2 [E,B,]2 [E,_D]2 | %7
 [A,CA]2 [A,EA]2 [A,EA]4 | [E,E]2 [E,B,E]2 [E,B,E]>[E,A,D] [E,G,]2 | [B,,A,]4 [E,G,]2 z2 | %10
 [E,B,]2 [E,B,]2 [E,B,]>[E,B,] [E,B,E]2 | [A,E]4 [E,G,E]2 z2 | [E,B,]2 E,2 E,>E, E,2 | %13
[M:3/4] B,,4 B,,2 |[M:1/4] z A, |[M:4/4] E,2 E,2 E,2 z G, | A,2 A,2 A,4 | E,2 E,2 E,>E, E,2 | %18
[M:3/4] B,,4 E,2 |] %19
V:4
 z4 z2 G,2 | x8 | B,,2 B,,2 B,,2 z E | x8 |[M:3/4] x6 |[M:1/4] x2 |[M:4/4] x8 | x8 | x8 | x8 | x8 | %11
 x8 | x8 |[M:3/4] x6 |[M:1/4] G,2 |[M:4/4] z4 z2 E,2 | x8 | x8 |[M:3/4] x6 |] %19

